!!!COM:	Bach, Johann Sebastian
!!!CDT:	1685/02/21/-1750/07/28/
!!!OTL@@DE:	Das walt mein Gott
!!!SCT:	BWV 291
!!!PC#:	75
!!!AGN:	chorale
**harm	**kern	**kern	**kern	**kern
*	*ICvox	*ICvox	*ICvox	*ICvox
*	*Ibass	*Itenor	*Ialto	*Isoprn
*	*I"Bass	*I"Tenor	*I"Alto	*I"Soprano
*	*	*oclefC4	*oclefC3	*oclefC1
*	*clefF4	*clefGv2	*clefG2	*clefG2
*k[b-]	*k[b-]	*k[b-]	*k[b-]	*k[b-]
*d:	*d:	*d:	*d:	*d:
*M4/4	*M4/4	*M4/4	*M4/4	*M4/4
*met(c)	*met(c)	*met(c)	*met(c)	*met(c)
*MM100	*MM100	*MM100	*MM100	*MM100
i	4D	4A	4d	4f
=1	=1	=1	=1	=1
F:I6	4AA	4A	4c	4f
V7	4C	4B-	4c	4e
I	2FF	2A	2c	2f
=2	=2	=2	=2	=2
I	4F	4c	4f	4a
V6	4E	4c	4g	4cc
IV6	8DL	8dL	8fL	8b-L
V65	8EJ	8cJ	8gJ	8b-J
I	4F	4c	4f	4a
=3	=3	=3	=3	=3
V	4C	4c	4e	4g
V65/V	4BB	4F	4d	4g
V;	4C;	4E;	4c;	4g;
I6	4AA	4F	4c	4c
=4	=4	=4	=4	=4
IV	4BB-	4F	4B-	4d
I6	4AA	4A	4c	4f
V	4C	4G	4c	4e
V7	4CC	4B-	4c	4e
=5	=5	=5	=5	=5
I;	2FF;	2A;	2c;	2f;
.	4r	4ry	4ry	4r
I	4FF	4A	4c	4f
=6	=6	=6	=6	=6
I	4F	4c	4f	4a
V6	4E	4c	4g	4g
I	4F	4c	4f	4a
IV6	4D	4d	4f	4b-
=7	=7	=7	=7	=7
I6	2AA	2c	2f	2cc
V;	4C;	4c;	4e;	4g;
C:V65	4BB	4d	4f	4g
=8	=8	=8	=8	=8
I	4C	4c	4e	4g
V	8GL	8BL	8dL	8gL
V2	8FJ	8BJ	8dJ	8gJ
I6	4E	4c	4e	4g
I	8CL	8cL	8eL	8gL
V2/IV	8BB-J	8cJ	8eJ	8gJ
=9	=9	=9	=9	=9
d:V	4AA	4c#	4e	4a
V65	4C#X	4G	4e	4a
i;	4D;	4F;	4d;	4a;
i	4D	4A	4d	4f
=10	=10	=10	=10	=10
ii%2	8DL	8GL	8B-XL	8eL
viio7	8C#J	8GJ	8B-J	8eJ
i	8DL	8FL	8AL	8dL
i6	8FFJ	8F	8AJ	8dJ
ii%65	4GG	4E	4B-	4d
V7	4AA	4G	4A	4c#
=11	=11	=11	=11	=11
I	2.DD;	2.F#;	2.A;	2.d;
==	==	==	==	==
*-	*-	*-	*-	*-
!!!YOR1: 371 vierstimmige Choralges&auml;nge von Johann Sebastian Bach, 
!!!YOR2: 4th ed. by Alfred D&ouml;rffel (Leipzig: Breitkopf und H&auml;rtel, 
!!!YOR2: c.1875). 178 pp. Plate "V.A.10".  reprint: J.S. Bach, 371 Four-Part 
!!!YOR4: Chorales (New York: Associated Music Publishers, Inc., c.1940).
!!!SMS: B&H, 4th ed, Alfred D&ouml;rffel, c.1875, plate V.A.10
!!!EED:  Craig Stuart Sapp
!!!EEV:  2009/05/22
